tools/download-figma-icons/icons/outlined-large/present.svg

<svg xmlns="http://www.w3.org/2000/svg" width="64" height="64" fill="none" viewBox="0 0 64 64"><path fill="currentColor" d="M59.5 17H45.06C50.5 13.82 52 8.92 52 6.5 52 2.67 49.33 0 45.5 0c-4.87 0-7.24 4.63-7.3 4.75L32 15.5 25.84 4.83C25.74 4.63 23.37 0 18.5 0 14.67 0 12 2.67 12 6.5c0 2.42 1.5 7.32 6.94 10.5H4.5c-.83 0-1.5.67-1.5 1.5v12c0 .83.67 1.5 1.5 1.5H7v30.5c0 .83.67 1.5 1.5 1.5h47c.83 0 1.5-.67 1.5-1.5V32h2.5c.83 0 1.5-.67 1.5-1.5v-12c0-.83-.67-1.5-1.5-1.5M36 20v9h-8v-9zm4.84-13.82S42.5 3 45.5 3C47.66 3 49 4.34 49 6.5c0 .1-.41 9.36-14.35 10.4l6.19-10.73zM15 6.5C15 4.34 16.34 3 18.5 3c3 0 4.65 3.15 4.7 3.25l6.15 10.65C15.41 15.85 15 6.59 15 6.5M6 20h19v9H6zm4 12h15v29H10zm18 29V32h8v29zm26 0H39V32h15zm4-32H39v-9h19z"/></svg>

<svg width="64" height="64" viewBox="0 0 64 64" fill="none" xmlns="http://www.w3.org/2000/svg">
<path d="M59.5 17H45.06C50.5 13.82 52 8.92 52 6.5C52 2.67 49.33 0 45.5 0C40.63 0 38.26 4.63 38.2 4.75L32 15.5L25.84 4.83C25.74 4.63 23.37 0 18.5 0C14.67 0 12 2.67 12 6.5C12 8.92 13.5 13.82 18.94 17H4.5C3.67 17 3 17.67 3 18.5V30.5C3 31.33 3.67 32 4.5 32H7V62.5C7 63.33 7.67 64 8.5 64H55.5C56.33 64 57 63.33 57 62.5V32H59.5C60.33 32 61 31.33 61 30.5V18.5C61 17.67 60.33 17 59.5 17ZM36 20V29H28V20H36ZM40.84 6.18C40.84 6.18 42.5 3 45.5 3C47.66 3 49 4.34 49 6.5C49 6.6 48.59 15.86 34.65 16.9L40.84 6.17V6.18ZM15 6.5C15 4.34 16.34 3 18.5 3C21.5 3 23.15 6.15 23.2 6.25L29.35 16.9C15.41 15.85 15 6.59 15 6.5ZM6 20H25V29H6V20ZM10 32H25V61H10V32ZM28 61V32H36V61H28ZM54 61H39V32H54V61ZM58 29H39V20H58V29Z" fill="black"/>
</svg>
